hero/solid/arrow-small-up.svg

<svg width="24" height="24" viewBox="0 0 24 24" fill="none" xmlns="http://www.w3.org/2000/svg">
<path fill-rule="evenodd" clip-rule="evenodd" d="M12 20.25C11.5858 20.25 11.25 19.9142 11.25 19.5V6.31066L5.78033 11.7803C5.48744 12.0732 5.01256 12.0732 4.71967 11.7803C4.42678 11.4874 4.42678 11.0126 4.71967 10.7197L11.4697 3.96967C11.7626 3.67678 12.2374 3.67678 12.5303 3.96967L19.2803 10.7197C19.5732 11.0126 19.5732 11.4874 19.2803 11.7803C18.9874 12.0732 18.5126 12.0732 18.2197 11.7803L12.75 6.31066V19.5C12.75 19.9142 12.4142 20.25 12 20.25Z" fill="#0F172A"/>
</svg>

<svg viewBox="0 0 24 24" xmlns="http://www.w3.org/2000/svg"><path fill-rule="evenodd" d="M12 20.25v0c-.42 0-.75-.34-.75-.75V6.31l-5.47 5.47v0c-.31.28-.78.26-1.06-.04 -.27-.29-.27-.74 0-1.03l6.75-6.75v0c.29-.3.76-.3 1.06-.001l6.75 6.75v0c.3.28.31.75.03 1.06 -.29.3-.76.31-1.06.03 -.02-.02-.03-.03-.04-.04l-5.47-5.47v13.19 0c0 .41-.34.75-.75.75Z"/></svg>
